X:22
T:Water Music - Alla Hornpipe
C:Handel, G.F.
M:3/4
L:1/8
Q:1/4=132
K:D
|:d|A3 FAd|f3 dAF|G3 EGB|e3 cEG|
A3 FAd|f3 dAF|G3 ECA,|D4 D:|
|:A|d3 efg|a3 gfe|d3 efa|b3 afg|
a3 fed|c3 Ace|d3 cde|f4 A:|

